X: 127
T: Xiangsi ling
L: 1/8
M: 2/4
K: D
z e d c [I:setbarnb 1]| 
B A/ F/ B E | 
z d c B | 
A G/ F/ E F | 
A2A2 | 
d c B A | 
D> C B, D | 
E2z2 | 
E2A2 | 
G2F E | 
D2C B, | 
E4 | 
d c B A | 
d G F E | 
A2z2 |]

@@@ Tune index: 9001
